views/img/oney/logo.svg

<?xml version="1.0" encoding="UTF-8"?>
<svg width="128px" height="40px" viewBox="0 0 128 40" version="1.1" xmlns="http://www.w3.org/2000/svg" xmlns:xlink="http://www.w3.org/1999/xlink">
    <!-- Generator: Sketch 59.1 (86144) - https://sketch.com -->
    <title>ic_oney_green</title>
    <desc>Created with Sketch.</desc>
    <g id="Checkout" stroke="none" stroke-width="1" fill="none" fill-rule="evenodd">
        <g id="Group-6-Copy-7" fill="#81BC00">
            <path d="M93.6922,18.838 C93.6492,11.779 87.9502,6.037 80.9752,6.037 C73.8012,6.037 68.1732,11.798 68.1732,19.154 C68.1732,22.607 69.4972,25.886 71.8762,28.388 C74.2962,30.921 77.4902,32.318 80.8882,32.318 C84.7662,32.318 90.2012,30.454 92.7862,25.171 C92.8422,25.059 92.8522,25.003 92.8522,25.003 L87.6522,25.003 L87.6212,25.038 C86.2252,26.71 83.5872,27.838 81.0762,27.838 C77.8872,27.838 74.0622,25.736 73.0162,20.989 L93.5902,20.989 C93.6352,20.499 93.6922,19.515 93.6922,18.838 L93.6922,18.838 Z M73.1672,16.796 C73.8012,13.617 76.8442,10.51 80.9362,10.51 C85.0222,10.51 88.0652,13.617 88.6902,16.796 L73.1672,16.796 Z M53.7462,10.36 C49.108,10.36 46.753,12.846 46.753,17.764 L46.753,32.329 L41.991,32.329 L41.991,17.422 C42.036,14.809 42.499,12.961 43.565,11.226 C44.829,9.278 47.823,6 53.7462,6 C59.6522,6 62.6572,9.278 63.9172,11.226 C64.9732,12.961 65.4522,14.809 65.4812,17.422 L65.4812,32.329 L60.7232,32.329 L60.7232,17.764 C60.7232,12.846 58.3802,10.36 53.7462,10.36 L53.7462,10.36 Z M118.4432,6.006 L108.4072,30.491 L105.9272,36.55 L104.5572,39.901 L99.6092,39.901 L103.4492,30.498 L93.1922,6.006 L98.4212,6.006 L105.9302,24.417 L113.4562,6.006 L118.4432,6.006 Z M26.134,27.853 C21.452,27.853 17.642,24.045 17.642,19.186 C17.642,14.326 21.452,10.51 26.134,10.51 C30.786,10.51 34.617,14.326 34.617,19.186 C34.617,24.045 30.786,27.853 26.134,27.853 L26.134,27.853 Z M26.134,6.006 C18.769,6.006 13,11.79 13,19.185 C13,26.573 18.769,32.365 26.134,32.365 C33.482,32.365 39.248,26.573 39.248,19.185 C39.248,11.79 33.482,6.006 26.134,6.006 L26.134,6.006 Z" id="Fill-1"></path>
        </g>
    </g>
</svg>

<svg width="128" height="40" xmlns="http://www.w3.org/2000/svg">
    <path d="M93.692 18.838C93.65 11.779 87.95 6.037 80.975 6.037c-7.174 0-12.802 5.761-12.802 13.117 0 3.453 1.324 6.732 3.703 9.234 2.42 2.533 5.614 3.93 9.012 3.93 3.878 0 9.313-1.864 11.898-7.147a.715.715 0 0 0 .066-.168h-5.2l-.03.035c-1.397 1.672-4.035 2.8-6.546 2.8-3.189 0-7.014-2.102-8.06-6.849H93.59c.045-.49.102-1.474.102-2.151zm-20.525-2.042c.634-3.179 3.677-6.286 7.77-6.286 4.085 0 7.128 3.107 7.753 6.286H73.167zm-19.42-6.436c-4.639 0-6.994 2.486-6.994 7.404v14.565h-4.762V17.422c.045-2.613.508-4.461 1.574-6.196C44.829 9.278 47.823 6 53.746 6c5.906 0 8.911 3.278 10.171 5.226 1.056 1.735 1.535 3.583 1.564 6.196v14.907h-4.758V17.764c0-4.918-2.343-7.404-6.977-7.404zm64.696-4.354-10.036 24.485-2.48 6.059-1.37 3.351H99.61l3.84-9.403L93.192 6.006h5.23l7.508 18.411 7.526-18.411h4.987zM26.134 27.853c-4.682 0-8.492-3.808-8.492-8.667 0-4.86 3.81-8.676 8.492-8.676 4.652 0 8.483 3.816 8.483 8.676 0 4.859-3.831 8.667-8.483 8.667zm0-21.847C18.769 6.006 13 11.79 13 19.185c0 7.388 5.769 13.18 13.134 13.18 7.348 0 13.114-5.792 13.114-13.18 0-7.395-5.766-13.179-13.114-13.179z" fill="#81BC00" fill-rule="evenodd"/>
</svg>
